X: 1
T: the Roxburgh Quick Step
R: jig
B: RSCDS 26-6
Z: 1997 by John Chambers <jc:trillian.mit.edu>
N:
M: 6/8
L: 1/8
K: D
A, \
| "D"D3 FEF | A2d F2F | "Em"G2B E2D | "A7"CEA A,B,C \
| "D"D3 FEF | A2d F2F | "G"GBA "Em"GFE | "A7"E3 "D"D2 !fine![|]:|
A \
| "D"d3 fdf | a2a f2d | A2d "Em"G2A | "A7"GEE E2A \
| "D"d3 fdf | a2a "Bm"f2d | "E7"Bdc BA^G | "A7"ABA =GFE !d.C.![|]|]
